icons-dark/emblems/8/emblem-added.svg

<svg xmlns="http://www.w3.org/2000/svg" viewBox="0 0 8 8 ">
    <path
       style="opacity:1;fill:#27ae60;fill-opacity:1;stroke:none"
       d="M 4,0 C 1.784,0 0,1.784 0,4 0,6.216 1.784,8 4,8 6.216,8 8,6.216 8,4 8,1.784 6.216,0 4,0 Z"
        />
    <path
       style="fill:#ffffff;fill-opacity:1;stroke:none"
       d="m 3.5,1 0,2.5 -2.5,0 0,1 2.5,0 0,2.5 1,0 0,-2.5 2.5,0 0,-1 -2.5,0 0,-2.5 -1,0 z"
        />
</svg>

<svg xmlns="http://www.w3.org/2000/svg" viewBox="0 0 8 8 ">
  <g
     transform="translate(-7,-1037.3622)">
    <path
       style="opacity:1;fill:#27ae60;fill-opacity:1;stroke:none"
       d="m 11,1037.3622 c 2.216,0 4,1.784 4,4 0,2.216 -1.784,4 -4,4 -2.216,0 -4,-1.784 -4,-4 0,-2.216 1.784,-4 4,-4 z"
       id="rect4153" />
    <path
       style="fill:#ffffff;fill-opacity:1;stroke:none"
       d="m 33,1039.3622 -3,3 -1,-1 -1,1 1,1 1,1 4,-4 -1,-1 z"
       id="path4142"
       inkscape:connector-curvature="0" />
    <path
       style="fill:#ffffff;fill-opacity:1;fill-rule:evenodd;stroke:none"
       d="M 3.5 1 L 3.5 3.5 L 1 3.5 L 1 4.5 L 3.5 4.5 L 3.5 7 L 4.5 7 L 4.5 4.5 L 7 4.5 L 7 3.5 L 4.5 3.5 L 4.5 1 L 3.5 1 z "
       transform="translate(7,1037.3622)"
       id="rect3336" />
  </g>
</svg>
